Lila_HD/apps/scalable/minecraft.svg

<?xml version="1.0" encoding="UTF-8" standalone="no"?>
<!-- Created with Inkscape (http://www.inkscape.org/) -->

<svg
   xmlns:dc="http://purl.org/dc/elements/1.1/"
   xmlns:cc="http://creativecommons.org/ns#"
   xmlns:rdf="http://www.w3.org/1999/02/22-rdf-syntax-ns#"
   xmlns:svg="http://www.w3.org/2000/svg"
   xmlns="http://www.w3.org/2000/svg"
   xmlns:xlink="http://www.w3.org/1999/xlink"
   xmlns:sodipodi="http://sodipodi.sourceforge.net/DTD/sodipodi-0.dtd"
   xmlns:inkscape="http://www.inkscape.org/namespaces/inkscape"
   width="96"
   height="96"
   viewBox="0 0 96.000001 96.000004"
   version="1.1"
   id="svg1072"
   inkscape:version="0.92.1 r15371"
   sodipodi:docname="minecraft.svg">
  <defs
     id="defs1066">
    <linearGradient
       y2="47.000011"
       x2="90"
       y1="47.000011"
       x1="6"
       gradientTransform="matrix(1.1071428,0,0,1.1071426,-4.9939026,-3.620687)"
       gradientUnits="userSpaceOnUse"
       id="linearGradient4071"
       xlink:href="#linearGradient6139-0"
       inkscape:collect="always" />
    <linearGradient
       id="linearGradient6139-0">
      <stop
         style="stop-color:#b4b9ba;stop-opacity:1"
         offset="0"
         id="stop6141-2" />
      <stop
         id="stop6151-0"
         offset="0.25"
         style="stop-color:#ffffff;stop-opacity:1;" />
      <stop
         id="stop6147-1"
         offset="0.5"
         style="stop-color:#98a0a2;stop-opacity:1" />
      <stop
         style="stop-color:#fbf9f9;stop-opacity:1;"
         offset="0.75"
         id="stop6149-4" />
      <stop
         style="stop-color:#b4b8ba;stop-opacity:1"
         offset="1"
         id="stop6143-4" />
    </linearGradient>
    <linearGradient
       gradientUnits="userSpaceOnUse"
       y2="88.171875"
       x2="94.5"
       y1="88.171875"
       x1="1.5"
       id="linearGradient4129"
       xlink:href="#linearGradient3832-0-6-1-1"
       inkscape:collect="always"
       gradientTransform="translate(0.1489535,0.415026)" />
    <linearGradient
       id="linearGradient3832-0-6-1-1">
      <stop
         id="stop3834-6-3-7-1"
         offset="0"
         style="stop-color:#000000;stop-opacity:1;" />
      <stop
         style="stop-color:#000000;stop-opacity:0.58823532;"
         offset="0.1"
         id="stop3872-2-4" />
      <stop
         id="stop3844-6-2-7-6"
         offset="0.89999998"
         style="stop-color:#000000;stop-opacity:0.58823532;" />
      <stop
         id="stop3836-5-0-2-9"
         offset="1"
         style="stop-color:#000000;stop-opacity:1;" />
    </linearGradient>
    <radialGradient
       r="43.199203"
       fy="44.892841"
       fx="13.948145"
       cy="44.892841"
       cx="13.948145"
       gradientTransform="matrix(0.97513378,0,0,0.04919072,34.047649,80.581722)"
       gradientUnits="userSpaceOnUse"
       id="radialGradient7462"
       xlink:href="#linearGradient3737"
       inkscape:collect="always" />
    <linearGradient
       id="linearGradient3737">
      <stop
         id="stop3739"
         style="stop-color:#ffffff;stop-opacity:1"
         offset="0" />
      <stop
         id="stop3741"
         style="stop-color:#ffffff;stop-opacity:0"
         offset="1" />
    </linearGradient>
    <radialGradient
       r="43.199203"
       fy="44.892841"
       fx="13.948145"
       cy="44.892841"
       cx="13.948145"
       gradientTransform="matrix(0.88832663,0,0,0.04919072,31.959518,-90.31726)"
       gradientUnits="userSpaceOnUse"
       id="radialGradient7464"
       xlink:href="#linearGradient3737"
       inkscape:collect="always" />
    <linearGradient
       y2="14.514202"
       x2="50.527882"
       y1="-28.64156"
       x1="2.7713892"
       gradientUnits="userSpaceOnUse"
       id="linearGradient4767"
       xlink:href="#linearGradient3737"
       inkscape:collect="always" />
    <clipPath
       clipPathUnits="userSpaceOnUse"
       id="clipPath4156-4-1">
      <path
         style="opacity:0.6;fill:#ffffff;fill-opacity:1;stroke:none"
         d="m 27.046336,-55.695463 -14.21366,13.321486 h 0.06127 l 15.653407,21.770763 10.231384,-10.546177 C 38.561832,-32.30156 27.468089,-54.819245 27.046336,-55.695463 Z M 9.6468554,-39.382809 -5.2407289,-25.32124 15.987863,-7.8059573 26.372412,-18.382966 Z m 31.4906096,12.951445 -9.741259,9.713584 8.944804,12.4580526 7.780753,-7.5550056 z m -49.8397109,4.378822 -13.7541661,12.9822847 26.2830181,13.84571 0.06127,-0.0617 -0.122531,-0.0617 L 13.598503,-5.4007374 -8.7022409,-22.052595 Z m 38.0154159,7.400825 -9.802525,9.7752596 11.579232,9.5594001 7.62759,-7.40083 -8.669108,-11.0087257 z m 20.187073,5.6739697 -7.382526,7.2158 6.187844,8.54179 5.820249,-6.13651996 z m -32.195166,6.32154 -9.5574606,9.49772 13.6622686,7.1849703 7.933918,-7.6783603 z m 23.311629,2.37443004 -7.10683,6.93826996 8.362778,6.9074403 5.360756,-5.6739699 -0.06127,-0.0925 -0.0919,0.12335 -6.463539,-8.20258036 z m -8.730374,8.54178036 -7.505057,7.3391599 10.353916,5.45811 c 1.397496,-1.32103 5.67514,-6.12292 5.850882,-6.32154 z"
         id="path4158-0-8"
         inkscape:connector-curvature="0" />
    </clipPath>
  </defs>
  <sodipodi:namedview
     id="base"
     pagecolor="#ffffff"
     bordercolor="#666666"
     borderopacity="1.0"
     inkscape:pageopacity="0.0"
     inkscape:pageshadow="2"
     inkscape:zoom="4.43868"
     inkscape:cx="18.284517"
     inkscape:cy="44.557005"
     inkscape:document-units="px"
     inkscape:current-layer="g2574"
     showgrid="false"
     inkscape:showpageshadow="false"
     units="px"
     inkscape:lockguides="false"
     inkscape:window-width="1280"
     inkscape:window-height="972"
     inkscape:window-x="0"
     inkscape:window-y="26"
     inkscape:window-maximized="1" />
  <metadata
     id="metadata1069">
    <rdf:RDF>
      <cc:Work
         rdf:about="">
        <dc:format>image/svg+xml</dc:format>
        <dc:type
           rdf:resource="http://purl.org/dc/dcmitype/StillImage" />
        <dc:title></dc:title>
        <dc:date>2017</dc:date>
        <dc:creator>
          <cc:Agent>
            <dc:title>Cristian Pozzessere &quot;ilnanny&quot;</dc:title>
          </cc:Agent>
        </dc:creator>
        <dc:subject>
          <rdf:Bag>
            <rdf:li>Global language</rdf:li>
          </rdf:Bag>
        </dc:subject>
        <dc:description>Playing with Inkscape on Gnu/Linux O. S.</dc:description>
        <dc:contributor>
          <cc:Agent>
            <dc:title>In the night, alone like a dog.</dc:title>
          </cc:Agent>
        </dc:contributor>
        <cc:license
           rdf:resource="http://creativecommons.org/licenses/by-sa/4.0/" />
      </cc:Work>
      <cc:License
         rdf:about="http://creativecommons.org/licenses/by-sa/4.0/">
        <cc:permits
           rdf:resource="http://creativecommons.org/ns#Reproduction" />
        <cc:permits
           rdf:resource="http://creativecommons.org/ns#Distribution" />
        <cc:requires
           rdf:resource="http://creativecommons.org/ns#Notice" />
        <cc:requires
           rdf:resource="http://creativecommons.org/ns#Attribution" />
        <cc:permits
           rdf:resource="http://creativecommons.org/ns#DerivativeWorks" />
        <cc:requires
           rdf:resource="http://creativecommons.org/ns#ShareAlike" />
      </cc:License>
    </rdf:RDF>
  </metadata>
  <g
     inkscape:label="Livello 1"
     inkscape:groupmode="layer"
     id="layer1"
     transform="translate(0,-1026.5197)">
    <g
       transform="translate(-0.14895645,1026.1047)"
       style="display:inline"
       id="g2574">
      <path
         inkscape:connector-curvature="0"
         id="path3288"
         d="M 89.29181,0.415026 H 7.0060911 c -3.798848,0 -6.8571352,3.058285 -6.8571352,6.8571399 V 89.557884 c 0,3.798857 3.0582872,6.857142 6.8571352,6.857142 H 89.29181 c 3.798857,0 6.857147,-3.058285 6.857147,-6.857142 V 7.2721659 c 0,-3.7988549 -3.05829,-6.8571399 -6.857147,-6.8571399 z"
         style="display:inline;opacity:0.15;fill:#000000;fill-opacity:1;fill-rule:nonzero;stroke:none" />
      <path
         style="display:inline;opacity:0.15;fill:#000000;fill-opacity:1;fill-rule:nonzero;stroke:none"
         d="M 88.648954,1.165026 H 7.6489471 c -3.739492,0 -6.749993,3.010499 -6.749993,6.7499969 V 88.915026 c 0,3.739501 3.010501,6.75 6.749993,6.75 H 88.648954 c 3.739503,0 6.750003,-3.010499 6.750003,-6.75 V 7.9150229 c 0,-3.7394979 -3.0105,-6.7499969 -6.750003,-6.7499969 z"
         id="path4085"
         inkscape:connector-curvature="0" />
      <path
         inkscape:connector-curvature="0"
         id="rect4251-1"
         d="M 88.006093,1.915026 H 8.2918111 c -3.680143,0 -6.6428566,2.962713 -6.6428566,6.6428549 V 88.272171 c 0,3.680142 2.9627136,6.642856 6.6428566,6.642856 H 88.006093 c 3.680143,0 6.642854,-2.962714 6.642854,-6.642856 V 8.5578809 c 0,-3.6801419 -2.962711,-6.6428549 -6.642854,-6.6428549 z"
         style="display:inline;fill:url(#linearGradient4071);fill-opacity:1;fill-rule:nonzero;stroke:none" />
      <path
         sodipodi:nodetypes="sscccsccscccsss"
         inkscape:connector-curvature="0"
         id="path3400-6"
         d="m 11.390247,6.8021682 c -2.8564964,0 -5.1241284,2.3146876 -5.1241284,5.2304538 v 21.67369 7.322634 40.372561 c 1.0972399,1.70385 2.9688485,2.844058 5.1241284,2.844058 h 4.099303 65.588849 4.099302 c 2.155281,0 4.026889,-1.140208 5.124129,-2.844058 V 41.028946 33.706312 12.032622 c 0,-2.9157662 -2.267632,-5.2304538 -5.124129,-5.2304538 z"
         style="display:inline;opacity:0.912;fill:#fecc81;fill-opacity:1;fill-rule:nonzero;stroke:none;stroke-width:1.03540373" />
      <path
         style="display:inline;opacity:1;fill:#594a42;fill-opacity:1;fill-rule:nonzero;stroke:none;stroke-width:1.03540373"
         d="M 11.242188 6.3867188 C 8.3856911 6.3867188 6.1171875 8.7014213 6.1171875 11.617188 L 6.1171875 32.291016 L 17.916016 32.291016 L 17.916016 21.929688 L 78.128906 21.929688 L 78.128906 32.291016 L 90.076172 32.291016 L 90.076172 21.929688 L 90.076172 21.337891 L 90.076172 10.730469 C 89.669278 8.2472657 87.588242 6.3867187 85.029297 6.3867188 L 11.242188 6.3867188 z "
         transform="translate(0.14895645,0.415)"
         id="path3058" />
      <g
         transform="matrix(0.1463986,0,0,0.1463986,-14.240051,-21.850473)"
         style="display:inline"
         id="g3005">
        <rect
           x="351.31699"
           y="465.418"
           width="149.367"
           height="74.683998"
           id="rect4"
           style="fill:#e27e08;fill-opacity:1" />
        <polygon
           points="315.772,611.987 315.772,540.468 242.354,541.733 242.354,685.162 606.42,683.896 606.42,541.102 537.291,541.102 537.291,611.987 "
           id="polygon8"
           style="display:inline;fill:#594a42"
           transform="translate(3.8480782e-6)" />
        <g
           id="g20">
          <g
             id="g14">
            <rect
               x="203.114"
               y="390.46899"
               width="149.367"
               height="74.683998"
               id="rect12"
               style="fill:#ffffff" />
          </g>
          <g
             id="g18">
            <rect
               x="499.836"
               y="390.46899"
               width="149.367"
               height="74.683998"
               id="rect16"
               style="fill:#ffffff" />
          </g>
        </g>
        <g
           id="g30">
          <g
             id="g24">
            <rect
               x="277.797"
               y="390.39301"
               stroke-miterlimit="10"
               width="74.834999"
               height="74.834999"
               id="rect22"
               style="fill:#1c75bc;stroke:#fecc81;stroke-width:0.57709998;stroke-miterlimit:10" />
          </g>
          <g
             id="g28">
            <rect
               x="499.68399"
               y="390.39301"
               stroke-miterlimit="10"
               width="74.835999"
               height="74.834999"
               id="rect26"
               style="fill:#1c75bc;stroke:#fecc81;stroke-width:0.57709998;stroke-miterlimit:10" />
          </g>
        </g>
      </g>
      <path
         style="color:#000000;font-style:normal;font-variant:normal;font-weight:normal;font-stretch:normal;font-size:medium;line-height:normal;font-family:Sans;-inkscape-font-specification:Sans;text-indent:0;text-align:start;text-decoration:none;text-decoration-line:none;letter-spacing:normal;word-spacing:normal;text-transform:none;writing-mode:lr-tb;direction:ltr;baseline-shift:baseline;text-anchor:start;display:inline;overflow:visible;visibility:visible;fill:#241f1f;fill-opacity:0.63265303;stroke:none;stroke-width:2.3755002;marker:none;enable-background:accumulate"
         d="m 9.9740341,5.1444869 c -3.116621,0 -5.667965,2.53951 -5.667965,5.6460041 v 69.277996 c 0,3.106495 2.551344,5.646004 5.667965,5.646004 H 86.765819 c 3.116621,0 5.667968,-2.539509 5.667968,-5.646004 V 10.790491 c 0,-3.1064931 -2.551347,-5.6460041 -5.667968,-5.6460041 z m 0,2.319439 H 86.765819 c 1.888099,0 3.352022,1.480095 3.352022,3.3265651 v 69.277996 c 0,1.846474 -1.463923,3.326564 -3.352022,3.326564 H 9.9740341 c -1.888099,0 -3.352022,-1.48009 -3.352022,-3.326564 V 10.790491 c 0,-1.8464701 1.463923,-3.3265651 3.352022,-3.3265651 z"
         id="path4989"
         inkscape:connector-curvature="0" />
      <path
         id="path4118"
         d="m 1.6489535,82.258776 v 6 c 0,3.680142 2.9761066,6.65625 6.6562496,6.65625 H 87.992703 c 3.680143,0 6.656254,-2.976108 6.656254,-6.65625 v -6 c 0,3.680142 -2.976111,6.65625 -6.656254,6.65625 H 8.3052031 c -3.680143,0 -6.6562496,-2.976108 -6.6562496,-6.65625 z"
         style="display:inline;opacity:0.65818182;fill:url(#linearGradient4129);fill-opacity:1;fill-rule:nonzero;stroke:none"
         inkscape:connector-curvature="0" />
      <rect
         ry="4.25"
         rx="0"
         y="80.665031"
         x="5.5239539"
         height="4.25"
         width="84.250008"
         id="rect4131"
         style="opacity:0.55;fill:url(#radialGradient7462);fill-opacity:1;stroke:none" />
      <rect
         transform="rotate(90)"
         style="opacity:0.669;fill:url(#radialGradient7464);fill-opacity:1;stroke:none"
         id="rect4141"
         width="76.75"
         height="4.25"
         x="5.9750223"
         y="-90.233963"
         rx="0"
         ry="4.25" />
      <rect
         clip-path="url(#clipPath4156-4-1)"
         ry="3.9569881"
         rx="3.9569874"
         y="-30"
         x="2"
         height="69.024437"
         width="75.965775"
         id="rect4146"
         style="opacity:0.5078125;fill:url(#linearGradient4767);fill-opacity:1;stroke:none"
         transform="matrix(1.0692451,0,0,1.0476829,4.4441802,38.894013)" />
      <g
         style="display:inline"
         id="g10"
         transform="matrix(0.12753152,0,0,0.11694149,-5.9020345,-4.5175341)" />
    </g>
  </g>
</svg>

<?xml version="1.0" encoding="UTF-8"?>
<!-- Created with Inkscape (http://www.inkscape.org/) -->
<svg version="1.1" viewBox="0 0 96 96" xmlns="http://www.w3.org/2000/svg" xmlns:cc="http://creativecommons.org/ns#" xmlns:dc="http://purl.org/dc/elements/1.1/" xmlns:rdf="http://www.w3.org/1999/02/22-rdf-syntax-ns#" xmlns:xlink="http://www.w3.org/1999/xlink">
<defs>
<linearGradient id="linearGradient4071" x1="6" x2="90" y1="47" y2="47" gradientTransform="matrix(1.1071 0 0 1.1071 -4.9939 -3.6207)" gradientUnits="userSpaceOnUse">
<stop stop-color="#b4b9ba" offset="0"/>
<stop stop-color="#fff" offset=".25"/>
<stop stop-color="#98a0a2" offset=".5"/>
<stop stop-color="#fbf9f9" offset=".75"/>
<stop stop-color="#b4b8ba" offset="1"/>
</linearGradient>
<linearGradient id="linearGradient4129" x1="1.5" x2="94.5" y1="88.172" y2="88.172" gradientTransform="translate(.14895 .41503)" gradientUnits="userSpaceOnUse">
<stop offset="0"/>
<stop stop-opacity=".58824" offset=".1"/>
<stop stop-opacity=".58824" offset=".9"/>
<stop offset="1"/>
</linearGradient>
<radialGradient id="radialGradient7462" cx="13.948" cy="44.893" r="43.199" gradientTransform="matrix(.97513 0 0 .049191 34.048 80.582)" gradientUnits="userSpaceOnUse" xlink:href="#linearGradient3737"/>
<linearGradient id="linearGradient3737">
<stop stop-color="#fff" offset="0"/>
<stop stop-color="#fff" stop-opacity="0" offset="1"/>
</linearGradient>
<radialGradient id="radialGradient7464" cx="13.948" cy="44.893" r="43.199" gradientTransform="matrix(.88833 0 0 .049191 31.96 -90.317)" gradientUnits="userSpaceOnUse" xlink:href="#linearGradient3737"/>
<linearGradient id="linearGradient4767" x1="2.7714" x2="50.528" y1="-28.642" y2="14.514" gradientUnits="userSpaceOnUse" xlink:href="#linearGradient3737"/>
<clipPath id="clipPath4156-4-1">
<path d="m27.046-55.695-14.214 13.321h0.06127l15.653 21.771 10.231-10.546c-0.2169-1.1522-11.311-23.67-11.732-24.546zm-17.399 16.313-14.888 14.062 21.229 17.515 10.385-10.577zm31.491 12.951-9.7413 9.7136 8.9448 12.458 7.7808-7.555zm-49.84 4.3788-13.754 12.982 26.283 13.846 0.06127-0.0617-0.12253-0.0617 9.8332-10.053-22.301-16.652zm38.015 7.4008-9.8025 9.7753 11.579 9.5594 7.6276-7.4008-8.6691-11.009zm20.187 5.674-7.3825 7.2158 6.1878 8.5418 5.8202-6.1365zm-32.195 6.3215-9.5575 9.4977 13.662 7.185 7.9339-7.6784zm23.312 2.3744-7.1068 6.9383 8.3628 6.9074 5.3608-5.674-0.06127-0.0925-0.0919 0.12335-6.4635-8.2026zm-8.7304 8.5418-7.5051 7.3392 10.354 5.4581c1.3975-1.321 5.6751-6.1229 5.8509-6.3215z" fill="#fff" opacity=".6"/>
</clipPath>
</defs>
<metadata>
<rdf:RDF>
<cc:Work rdf:about="">
<dc:format>image/svg+xml</dc:format>
<dc:type rdf:resource="http://purl.org/dc/dcmitype/StillImage"/>
<dc:title/>
<dc:date>2017</dc:date>
<dc:creator>
<cc:Agent>
<dc:title>Cristian Pozzessere "ilnanny"</dc:title>
</cc:Agent>
</dc:creator>
<dc:subject>
<rdf:Bag>
<rdf:li>Global language</rdf:li>
</rdf:Bag>
</dc:subject>
<dc:description>Playing with Inkscape on Gnu/Linux O. S.</dc:description>
<dc:contributor>
<cc:Agent>
<dc:title>In the night, alone like a dog.</dc:title>
</cc:Agent>
</dc:contributor>
<cc:license rdf:resource="http://creativecommons.org/licenses/by-sa/4.0/"/>
</cc:Work>
<cc:License rdf:about="http://creativecommons.org/licenses/by-sa/4.0/">
<cc:permits rdf:resource="http://creativecommons.org/ns#Reproduction"/>
<cc:permits rdf:resource="http://creativecommons.org/ns#Distribution"/>
<cc:requires rdf:resource="http://creativecommons.org/ns#Notice"/>
<cc:requires rdf:resource="http://creativecommons.org/ns#Attribution"/>
<cc:permits rdf:resource="http://creativecommons.org/ns#DerivativeWorks"/>
<cc:requires rdf:resource="http://creativecommons.org/ns#ShareAlike"/>
</cc:License>
</rdf:RDF>
</metadata>
<g transform="translate(0 -1026.5)">
<g transform="translate(-.14896 1026.1)">
<path d="m89.292 0.41503h-82.286c-3.7988 0-6.8571 3.0583-6.8571 6.8571v82.286c0 3.7989 3.0583 6.8571 6.8571 6.8571h82.286c3.7989 0 6.8571-3.0583 6.8571-6.8571v-82.286c0-3.7989-3.0583-6.8571-6.8571-6.8571z" opacity=".15"/>
<path d="m88.649 1.165h-81c-3.7395 0-6.75 3.0105-6.75 6.75v81c0 3.7395 3.0105 6.75 6.75 6.75h81c3.7395 0 6.75-3.0105 6.75-6.75v-81c0-3.7395-3.0105-6.75-6.75-6.75z" opacity=".15"/>
<path d="m88.006 1.915h-79.714c-3.6801 0-6.6429 2.9627-6.6429 6.6429v79.714c0 3.6801 2.9627 6.6429 6.6429 6.6429h79.714c3.6801 0 6.6429-2.9627 6.6429-6.6429v-79.714c0-3.6801-2.9627-6.6429-6.6429-6.6429z" fill="url(#linearGradient4071)"/>
<path d="m11.39 6.8022c-2.8565 0-5.1241 2.3147-5.1241 5.2305v69.369c1.0972 1.7038 2.9688 2.8441 5.1241 2.8441h73.787c2.1553 0 4.0269-1.1402 5.1241-2.8441v-69.369c0-2.9158-2.2676-5.2305-5.1241-5.2305z" fill="#fecc81" opacity=".912"/>
<path transform="translate(.14896 .415)" d="m11.242 6.3867c-2.8565 0-5.125 2.3147-5.125 5.2305v20.674h11.799v-10.361h60.213v10.361h11.947v-10.361-0.5918-10.607c-0.40689-2.4832-2.4879-4.3438-5.0469-4.3438h-73.787z" fill="#594a42"/>
<g transform="matrix(.1464 0 0 .1464 -14.24 -21.85)">
<rect x="351.32" y="465.42" width="149.37" height="74.684" fill="#e27e08"/>
<polygon transform="translate(3.8481e-6)" points="315.77 611.99 315.77 540.47 242.35 541.73 242.35 685.16 606.42 683.9 606.42 541.1 537.29 541.1 537.29 611.99" fill="#594a42"/>
<rect x="203.11" y="390.47" width="149.37" height="74.684" fill="#fff"/>
<rect x="499.84" y="390.47" width="149.37" height="74.684" fill="#fff"/>
<rect x="277.8" y="390.39" width="74.835" height="74.835" fill="#1c75bc" stroke="#fecc81" stroke-miterlimit="10" stroke-width=".5771"/>
<rect x="499.68" y="390.39" width="74.836" height="74.835" fill="#1c75bc" stroke="#fecc81" stroke-miterlimit="10" stroke-width=".5771"/>
</g>
<path d="m9.974 5.1445c-3.1166 0-5.668 2.5395-5.668 5.646v69.278c0 3.1065 2.5513 5.646 5.668 5.646h76.792c3.1166 0 5.668-2.5395 5.668-5.646v-69.278c0-3.1065-2.5513-5.646-5.668-5.646zm0 2.3194h76.792c1.8881 0 3.352 1.4801 3.352 3.3266v69.278c0 1.8465-1.4639 3.3266-3.352 3.3266h-76.792c-1.8881 0-3.352-1.4801-3.352-3.3266v-69.278c0-1.8465 1.4639-3.3266 3.352-3.3266z" color="#000000" fill="#241f1f" fill-opacity=".63265" style="text-decoration-line:none;text-indent:0;text-transform:none"/>
<path d="m1.649 82.259v6c0 3.6801 2.9761 6.6562 6.6562 6.6562h79.687c3.6801 0 6.6563-2.9761 6.6563-6.6562v-6c0 3.6801-2.9761 6.6562-6.6563 6.6562h-79.687c-3.6801 0-6.6562-2.9761-6.6562-6.6562z" fill="url(#linearGradient4129)" opacity=".65818"/>
<rect x="5.524" y="80.665" width="84.25" height="4.25" rx="0" ry="4.25" fill="url(#radialGradient7462)" opacity=".55"/>
<rect transform="rotate(90)" x="5.975" y="-90.234" width="76.75" height="4.25" rx="0" ry="4.25" fill="url(#radialGradient7464)" opacity=".669"/>
<rect transform="matrix(1.0692 0 0 1.0477 4.4442 38.894)" x="2" y="-30" width="75.966" height="69.024" rx="3.957" ry="3.957" clip-path="url(#clipPath4156-4-1)" fill="url(#linearGradient4767)" opacity=".50781"/>
</g>
</g>
</svg>
